dist/img/svg/D-flying.svg

<svg width="290" height="230" viewBox="0 0 290 230" fill="none" xmlns="http://www.w3.org/2000/svg">
<g filter="url(#filter0_dd_94:668)">
<mask id="mask0_94:668" style="mask-type:alpha" maskUnits="userSpaceOnUse" x="17" y="-17" width="256" height="186">
<path d="M132.267 112.075L164.702 104.351L156.977 71.9159L124.542 79.6406L132.267 112.075Z" fill="#F9E050"/>
<path d="M65.4017 43.2512L97.8365 35.5266L92.1871 11.8056L59.7523 19.5303L65.4017 43.2512Z" fill="#F4F464"/>
<path d="M94.972 61.4455L127.407 53.7208L119.682 21.286L87.2473 29.0107L94.972 61.4455ZM23.3411 78.5051L47.2235 72.8173L41.5356 48.9349L17.6533 54.6228L23.3411 78.5051ZM76.7698 90.9833L100.652 85.2955L94.9643 61.4132L71.082 67.101L76.7698 90.9833Z" fill="#F4F464"/>
<path d="M137.94 135.893L170.374 128.169L162.65 95.7338L130.215 103.458L137.94 135.893Z" fill="#F9B038"/>
<path d="M133.061 153.288L174.016 143.534L168.328 119.652L127.373 129.406L133.061 153.288Z" fill="#F6842D"/>
<path d="M69.9674 168.315L93.8497 162.627L88.1619 138.745L64.2795 144.433L69.9674 168.315Z" fill="#F9E050"/>
<path d="M115.204 40.4282L147.638 32.7035L139.952 0.430109L107.517 8.15479L115.204 40.4282Z" fill="#F6842D"/>
<path d="M88.1414 138.732L112.024 133.045L106.336 109.162L82.4536 114.85L88.1414 138.732Z" fill="#F4F464"/>
<path d="M144.628 58.6574L177.063 50.9328L169.338 18.498L136.903 26.2227L144.628 58.6574Z" fill="#F4AC2B"/>
<path d="M150.304 82.491L182.739 74.7663L175.014 42.3315L142.58 50.0562L150.304 82.491Z" fill="#F6842D"/>
<path d="M156.004 106.422L188.439 98.6969L180.714 66.2621L148.279 73.9868L156.004 106.422Z" fill="#F4AC2B"/>
<path d="M161.676 130.24L194.111 122.516L186.386 90.081L153.952 97.8057L161.676 130.24Z" fill="#F6842D"/>
<path d="M131.415 2.46355L137.065 26.1845L160.786 20.5351L183.529 116.032L159.647 121.72L165.335 145.602L229.349 130.357C238.967 128.066 247.032 124.986 253.509 121.107C259.993 117.261 264.823 112.052 268.035 105.49C271.246 98.927 272.867 90.6971 272.833 80.8151C272.806 70.9654 271.063 58.8474 267.627 44.4212C264.16 29.8659 260.331 18.296 256.129 9.74747C251.873 1.04146 246.943 -5.33848 241.343 -9.37621C235.738 -13.6095 228.928 -15.9423 221.904 -16.035C214.585 -16.338 206.044 -15.327 196.313 -13.0096L155.116 -3.19814L131.415 2.46355ZM184.697 10.458L200.14 6.78018C205.465 5.51195 210.226 5.02601 214.359 5.33774C218.64 5.51146 222.679 7.36839 225.599 10.5047C228.968 13.6243 231.984 18.4137 234.684 24.8814C237.529 31.3145 240.268 40.0921 242.919 51.2264C245.563 62.3284 247.058 71.4703 247.465 78.6205C247.987 85.607 247.469 91.3064 245.914 95.735C244.478 99.8247 241.703 103.31 238.038 105.625C234.462 107.79 230.089 109.479 224.877 110.721L209.451 114.395L184.697 10.458Z" fill="#F14D34"/>
<path d="M118.855 55.7583L142.737 50.0705L137.049 26.1882L113.167 31.876L118.855 55.7583Z" fill="#F9E050"/>
<path d="M117.716 156.943L141.598 151.255L135.91 127.373L112.028 133.061L117.716 156.943Z" fill="#F9B038"/>
<path d="M89.2843 37.5633L113.167 31.8754L107.517 8.15446L83.6349 13.8423L89.2843 37.5633Z" fill="#F9E050"/>
</mask>
<g mask="url(#mask0_94:668)">
<g filter="url(#filter1_d_94:668)">
<path d="M132.267 112.075L164.702 104.351L156.977 71.9159L124.542 79.6406L132.267 112.075Z" fill="#F9E050"/>
<path d="M65.4017 43.2512L97.8365 35.5266L92.1871 11.8056L59.7523 19.5303L65.4017 43.2512Z" fill="#F4F464"/>
<path d="M94.972 61.4455L127.407 53.7208L119.682 21.286L87.2473 29.0107L94.972 61.4455ZM23.3411 78.5051L47.2235 72.8173L41.5356 48.9349L17.6533 54.6228L23.3411 78.5051ZM76.7698 90.9833L100.652 85.2955L94.9643 61.4132L71.082 67.101L76.7698 90.9833Z" fill="#F4F464"/>
<path d="M137.94 135.893L170.374 128.169L162.65 95.7338L130.215 103.458L137.94 135.893Z" fill="#F9B038"/>
<path d="M133.061 153.288L174.016 143.534L168.328 119.652L127.373 129.406L133.061 153.288Z" fill="#F6842D"/>
<path d="M69.9674 168.315L93.8497 162.627L88.1619 138.745L64.2795 144.433L69.9674 168.315Z" fill="#F9E050"/>
<path d="M115.204 40.4282L147.638 32.7035L139.952 0.430109L107.517 8.15479L115.204 40.4282Z" fill="#F6842D"/>
<path d="M88.1414 138.732L112.024 133.045L106.336 109.162L82.4536 114.85L88.1414 138.732Z" fill="#F4F464"/>
<path d="M144.628 58.6574L177.063 50.9328L169.338 18.498L136.903 26.2227L144.628 58.6574Z" fill="#F4AC2B"/>
<path d="M150.304 82.491L182.739 74.7663L175.014 42.3315L142.58 50.0562L150.304 82.491Z" fill="#F6842D"/>
<path d="M156.004 106.422L188.439 98.6969L180.714 66.2621L148.279 73.9868L156.004 106.422Z" fill="#F4AC2B"/>
<path d="M161.676 130.24L194.111 122.516L186.386 90.081L153.952 97.8057L161.676 130.24Z" fill="#F6842D"/>
<path d="M131.415 2.46355L137.065 26.1845L160.786 20.5351L183.529 116.032L159.647 121.72L165.335 145.602L229.349 130.357C238.967 128.066 247.032 124.986 253.509 121.107C259.993 117.261 264.823 112.052 268.035 105.49C271.246 98.927 272.867 90.6971 272.833 80.8151C272.806 70.9654 271.063 58.8474 267.627 44.4212C264.16 29.8659 260.331 18.296 256.129 9.74747C251.873 1.04146 246.943 -5.33848 241.343 -9.37621C235.738 -13.6095 228.928 -15.9423 221.904 -16.035C214.585 -16.338 206.044 -15.327 196.313 -13.0096L155.116 -3.19814L131.415 2.46355ZM184.697 10.458L200.14 6.78018C205.465 5.51195 210.226 5.02601 214.359 5.33774C218.64 5.51146 222.679 7.36839 225.599 10.5047C228.968 13.6243 231.984 18.4137 234.684 24.8814C237.529 31.3145 240.268 40.0921 242.919 51.2264C245.563 62.3284 247.058 71.4703 247.465 78.6205C247.987 85.607 247.469 91.3064 245.914 95.735C244.478 99.8247 241.703 103.31 238.038 105.625C234.462 107.79 230.089 109.479 224.877 110.721L209.451 114.395L184.697 10.458Z" fill="#F14D34"/>
<path d="M118.855 55.7583L142.737 50.0705L137.049 26.1882L113.167 31.876L118.855 55.7583Z" fill="#F9E050"/>
<path d="M117.716 156.943L141.598 151.255L135.91 127.373L112.028 133.061L117.716 156.943Z" fill="#F9B038"/>
<path d="M89.2843 37.5633L113.167 31.8754L107.517 8.15446L83.6349 13.8423L89.2843 37.5633Z" fill="#F9E050"/>
</g>
<rect x="12" y="30.8857" width="245.381" height="147.229" transform="rotate(-13.396 12 30.8857)" fill="url(#paint0_linear_94:668)"/>
</g>
</g>
<defs>
<filter id="filter0_dd_94:668" x="-5.07001" y="-26" width="307.08" height="261.169" filterUnits="userSpaceOnUse" color-interpolation-filters="sRGB">
<feFlood flood-opacity="0" result="BackgroundImageFix"/>
<feColorMatrix in="SourceAlpha" type="matrix" values="0 0 0 0 0 0 0 0 0 0 0 0 0 0 0 0 0 0 127 0" result="hardAlpha"/>
<feOffset dy="44.0975"/>
<feGaussianBlur stdDeviation="8.535"/>
<feColorMatrix type="matrix" values="0 0 0 0 0 0 0 0 0 0.0495833 0 0 0 0 0.145833 0 0 0 0.25 0"/>
<feBlend mode="normal" in2="BackgroundImageFix" result="effect1_dropShadow_94:668"/>
<feColorMatrix in="SourceAlpha" type="matrix" values="0 0 0 0 0 0 0 0 0 0 0 0 0 0 0 0 0 0 127 0" result="hardAlpha"/>
<feOffset dy="4.97875"/>
<feColorMatrix type="matrix" values="0 0 0 0 0.2375 0 0 0 0 0.136562 0 0 0 0 0.136562 0 0 0 1 0"/>
<feBlend mode="normal" in2="effect1_dropShadow_94:668" result="effect2_dropShadow_94:668"/>
<feBlend mode="normal" in="SourceGraphic" in2="effect2_dropShadow_94:668" result="shape"/>
</filter>
<filter id="filter1_d_94:668" x="0.583311" y="-16.0874" width="289.32" height="245.57" filterUnits="userSpaceOnUse" color-interpolation-filters="sRGB">
<feFlood flood-opacity="0" result="BackgroundImageFix"/>
<feColorMatrix in="SourceAlpha" type="matrix" values="0 0 0 0 0 0 0 0 0 0 0 0 0 0 0 0 0 0 127 0" result="hardAlpha"/>
<feOffset dy="44.0975"/>
<feGaussianBlur stdDeviation="8.535"/>
<feColorMatrix type="matrix" values="0 0 0 0 0 0 0 0 0 0.0495833 0 0 0 0 0.145833 0 0 0 0.25 0"/>
<feBlend mode="normal" in2="BackgroundImageFix" result="effect1_dropShadow_94:668"/>
<feBlend mode="normal" in="SourceGraphic" in2="effect1_dropShadow_94:668" result="shape"/>
</filter>
<linearGradient id="paint0_linear_94:668" x1="116.198" y1="-39.8837" x2="173.098" y2="136.862" gradientUnits="userSpaceOnUse">
<stop stop-color="white"/>
<stop offset="1" stop-color="white" stop-opacity="0"/>
</linearGradient>
</defs>
</svg>

<svg width="290" height="230" fill="none" xmlns="http://www.w3.org/2000/svg"><g filter="url(#filter0_dd_94:668)"><mask id="a" style="mask-type:alpha" maskUnits="userSpaceOnUse" x="17" y="-17" width="256" height="186"><path d="M132.267 112.075l32.435-7.724-7.725-32.435-32.435 7.725 7.725 32.434z" fill="#F9E050"/><path d="M65.402 43.251l32.434-7.724-5.649-23.721-32.435 7.724 5.65 23.721z" fill="#F4F464"/><path d="M94.972 61.446l32.435-7.725-7.725-32.435-32.435 7.725 7.725 32.434zm-71.63 17.06l23.882-5.689-5.688-23.882-23.883 5.688 5.688 23.882zM76.77 90.982l23.882-5.688-5.688-23.882L71.082 67.1l5.688 23.882z" fill="#F4F464"/><path d="M137.94 135.893l32.434-7.724-7.724-32.435-32.435 7.724 7.725 32.435z" fill="#F9B038"/><path d="M133.061 153.288l40.955-9.754-5.688-23.882-40.955 9.754 5.688 23.882z" fill="#F6842D"/><path d="M69.967 168.315l23.883-5.688-5.688-23.882-23.883 5.688 5.688 23.882z" fill="#F9E050"/><path d="M115.204 40.428l32.434-7.724L139.952.43l-32.435 7.725 7.687 32.273z" fill="#F6842D"/><path d="M88.141 138.732l23.883-5.687-5.688-23.883-23.882 5.688 5.687 23.882z" fill="#F4F464"/><path d="M144.628 58.657l32.435-7.724-7.725-32.435-32.435 7.725 7.725 32.434z" fill="#F4AC2B"/><path d="M150.304 82.491l32.435-7.725-7.725-32.435-32.434 7.725 7.724 32.435z" fill="#F6842D"/><path d="M156.004 106.422l32.435-7.725-7.725-32.435-32.435 7.725 7.725 32.435z" fill="#F4AC2B"/><path d="M161.676 130.24l32.435-7.724-7.725-32.435-32.434 7.725 7.724 32.434z" fill="#F6842D"/><path d="M131.415 2.464l5.65 23.72 23.721-5.649 22.743 95.497-23.882 5.688 5.688 23.882 64.014-15.245c9.618-2.291 17.683-5.371 24.16-9.25 6.484-3.846 11.314-9.055 14.526-15.617 3.211-6.563 4.832-14.793 4.798-24.675-.027-9.85-1.77-21.968-5.206-36.394-3.467-14.555-7.296-26.125-11.498-34.674-4.256-8.706-9.186-15.085-14.786-19.123a32.975 32.975 0 00-19.439-6.659c-7.319-.303-15.86.708-25.591 3.025l-41.197 9.812-23.701 5.662zm53.282 7.994L200.14 6.78c5.325-1.268 10.086-1.754 14.219-1.442 4.281.173 8.32 2.03 11.24 5.167 3.369 3.12 6.385 7.909 9.085 14.376 2.845 6.433 5.584 15.211 8.235 26.345 2.644 11.102 4.139 20.244 4.546 27.395.522 6.986.004 12.685-1.551 17.114a19.235 19.235 0 01-7.876 9.89c-3.576 2.165-7.949 3.854-13.161 5.096l-15.426 3.674-24.754-103.937z" fill="#F14D34"/><path d="M118.855 55.758l23.882-5.688-5.688-23.882-23.882 5.688 5.688 23.882z" fill="#F9E050"/><path d="M117.716 156.943l23.882-5.688-5.688-23.882-23.882 5.688 5.688 23.882z" fill="#F9B038"/><path d="M89.284 37.563l23.883-5.688-5.65-23.72-23.882 5.687 5.65 23.721z" fill="#F9E050"/></mask><g mask="url(#a)"><g filter="url(#filter1_d_94:668)"><path d="M132.267 112.075l32.435-7.724-7.725-32.435-32.435 7.725 7.725 32.434z" fill="#F9E050"/><path d="M65.402 43.251l32.434-7.724-5.649-23.721-32.435 7.724 5.65 23.721z" fill="#F4F464"/><path d="M94.972 61.446l32.435-7.725-7.725-32.435-32.435 7.725 7.725 32.434zm-71.63 17.06l23.882-5.689-5.688-23.882-23.883 5.688 5.688 23.882zM76.77 90.982l23.882-5.688-5.688-23.882L71.082 67.1l5.688 23.882z" fill="#F4F464"/><path d="M137.94 135.893l32.434-7.724-7.724-32.435-32.435 7.724 7.725 32.435z" fill="#F9B038"/><path d="M133.061 153.288l40.955-9.754-5.688-23.882-40.955 9.754 5.688 23.882z" fill="#F6842D"/><path d="M69.967 168.315l23.883-5.688-5.688-23.882-23.883 5.688 5.688 23.882z" fill="#F9E050"/><path d="M115.204 40.428l32.434-7.724L139.952.43l-32.435 7.725 7.687 32.273z" fill="#F6842D"/><path d="M88.141 138.732l23.883-5.687-5.688-23.883-23.882 5.688 5.687 23.882z" fill="#F4F464"/><path d="M144.628 58.657l32.435-7.724-7.725-32.435-32.435 7.725 7.725 32.434z" fill="#F4AC2B"/><path d="M150.304 82.491l32.435-7.725-7.725-32.435-32.434 7.725 7.724 32.435z" fill="#F6842D"/><path d="M156.004 106.422l32.435-7.725-7.725-32.435-32.435 7.725 7.725 32.435z" fill="#F4AC2B"/><path d="M161.676 130.24l32.435-7.724-7.725-32.435-32.434 7.725 7.724 32.434z" fill="#F6842D"/><path d="M131.415 2.464l5.65 23.72 23.721-5.649 22.743 95.497-23.882 5.688 5.688 23.882 64.014-15.245c9.618-2.291 17.683-5.371 24.16-9.25 6.484-3.846 11.314-9.055 14.526-15.617 3.211-6.563 4.832-14.793 4.798-24.675-.027-9.85-1.77-21.968-5.206-36.394-3.467-14.555-7.296-26.125-11.498-34.674-4.256-8.706-9.186-15.085-14.786-19.123a32.975 32.975 0 00-19.439-6.659c-7.319-.303-15.86.708-25.591 3.025l-41.197 9.812-23.701 5.662zm53.282 7.994L200.14 6.78c5.325-1.268 10.086-1.754 14.219-1.442 4.281.173 8.32 2.03 11.24 5.167 3.369 3.12 6.385 7.909 9.085 14.376 2.845 6.433 5.584 15.211 8.235 26.345 2.644 11.102 4.139 20.244 4.546 27.395.522 6.986.004 12.685-1.551 17.114a19.235 19.235 0 01-7.876 9.89c-3.576 2.165-7.949 3.854-13.161 5.096l-15.426 3.674-24.754-103.937z" fill="#F14D34"/><path d="M118.855 55.758l23.882-5.688-5.688-23.882-23.882 5.688 5.688 23.882z" fill="#F9E050"/><path d="M117.716 156.943l23.882-5.688-5.688-23.882-23.882 5.688 5.688 23.882z" fill="#F9B038"/><path d="M89.284 37.563l23.883-5.688-5.65-23.72-23.882 5.687 5.65 23.721z" fill="#F9E050"/></g><path transform="rotate(-13.396 12 30.886)" fill="url(#paint0_linear_94:668)" d="M12 30.886h245.381v147.229H12z"/></g></g><defs><filter id="filter0_dd_94:668" x="-5.07" y="-26" width="307.08" height="261.169" filterUnits="userSpaceOnUse" color-interpolation-filters="sRGB"><feFlood flood-opacity="0" result="BackgroundImageFix"/><feColorMatrix in="SourceAlpha" values="0 0 0 0 0 0 0 0 0 0 0 0 0 0 0 0 0 0 127 0" result="hardAlpha"/><feOffset dy="44.097"/><feGaussianBlur stdDeviation="8.535"/><feColorMatrix values="0 0 0 0 0 0 0 0 0 0.0495833 0 0 0 0 0.145833 0 0 0 0.25 0"/><feBlend in2="BackgroundImageFix" result="effect1_dropShadow_94:668"/><feColorMatrix in="SourceAlpha" values="0 0 0 0 0 0 0 0 0 0 0 0 0 0 0 0 0 0 127 0" result="hardAlpha"/><feOffset dy="4.979"/><feColorMatrix values="0 0 0 0 0.2375 0 0 0 0 0.136562 0 0 0 0 0.136562 0 0 0 1 0"/><feBlend in2="effect1_dropShadow_94:668" result="effect2_dropShadow_94:668"/><feBlend in="SourceGraphic" in2="effect2_dropShadow_94:668" result="shape"/></filter><filter id="filter1_d_94:668" x=".583" y="-16.087" width="289.32" height="245.57" filterUnits="userSpaceOnUse" color-interpolation-filters="sRGB"><feFlood flood-opacity="0" result="BackgroundImageFix"/><feColorMatrix in="SourceAlpha" values="0 0 0 0 0 0 0 0 0 0 0 0 0 0 0 0 0 0 127 0" result="hardAlpha"/><feOffset dy="44.097"/><feGaussianBlur stdDeviation="8.535"/><feColorMatrix values="0 0 0 0 0 0 0 0 0 0.0495833 0 0 0 0 0.145833 0 0 0 0.25 0"/><feBlend in2="BackgroundImageFix" result="effect1_dropShadow_94:668"/><feBlend in="SourceGraphic" in2="effect1_dropShadow_94:668" result="shape"/></filter><linearGradient id="paint0_linear_94:668" x1="116.198" y1="-39.884" x2="173.098" y2="136.862" gradientUnits="userSpaceOnUse"><stop stop-color="#fff"/><stop offset="1" stop-color="#fff" stop-opacity="0"/></linearGradient></defs></svg>
